!!!OTL: Der Ackersmann (224), S. 482
!!!id: T0407
**kern
*clefG2
*k[]
*C:
{8c
=1
8c
8e
16g
16g
8a
8g
8f
=2
4e}
4.r
=3
{8g
=4
8g
8a
8g
8f
8e
8d
=5
4c}
4.r
=6
{8g
=7
8g
8a
4g}
8r
=8
{8g
=9
8g
8a
8g
8f
8e
8d
=10
4c}
4.r
==
*-
!!!minrhy: 16
!!!meters: 3/4 ]  ZZ[4
!!!cut: Der Ackersmann (224), S. 482
!!!reg: Luxemburg
!!!trd: Singendes Volk, Esch-Alzette, 1937 posth.
!!!rhy1: X_  X_X_XXX_X_X_  X__0__.
!!!rhy2: X_  X_X_X_X_X_X_  X__0__.
!!!key: T0407  16  C 3/4 ]  ZZ[4
!!!mod: SECHSTONSKALA DUR ?]  AMBITUS[6
!!!kad: 3151
!!!akz: 13_51_5_51_
!!!fot: 'a__b__c__b__
!!!for: 'a__b__aw_b__
!!!fok: '^a_\__-__\__
!! PHRAS[AUFTAKTIG]
!!!fkt: Berufslied
!!!bem: Diekirch, fff Anna Faber, *1861, 25.12.1933
!! THILL; Mathias
!! PR[49] 2K[6] 2G[9] 3K[3] 3G[0] 4A[3] 4Ü[0] 5A[0] 6K[0] 6G[3]
!! 7K[0] 7G[0] 8A[3] MEHR[0] SI[26] ABS[35] SR[14] SP[11]
!! ST[10] 2k[3] 2g[6] 3k[6] 3g[3] 4d[6] 4ü[0] 5d[3] 6k[0] 6g[0]
!! 7k[0] 7g[0] 8d[0] mehr[0] si[26] dm[0] sr[9] sp[17]
!! 1F[11] 2F[79] 3F[11] 4F[0] LF[0] 2P[0] 3P[0] 4P[0] TRI[0] DF[3] AB[38]
!! TF[0] U3K[0] U3[0] U4[0] U4Ü[0] U5[11] U6K[0] U6[0] U7K[0] U7[6]
!! N1[11] N2K[0] N2[31] N3K[0] N3[11] N4[0] N4Ü[0] N5[31] N6K[0] N6[0]
!!!n7k: 0] N7[0] O1[0] O2K[0] O2[0] O3K[0] O3[0] HÖ[0
